public/img/logo.svg

<svg width="70" height="70" viewBox="0 0 70 70" fill="none" xmlns="http://www.w3.org/2000/svg">
<g clip-path="url(#clip0)">
<path d="M35.7982 18.2692C33.8198 19.2308 29.863 22.3077 27.4692 24.0385C25.5585 25.0901 18.9817 30.3846 17.4023 31.746C17.4089 33.6538 19.8273 40.5769 20.5645 42.6923C21.3016 44.8077 23.3432 51.1538 23.4878 51.5385C23.6325 51.9231 30.2587 51.9231 32.8306 51.9231C34.809 51.9231 45.4958 51.7308 46.4815 51.5385C47.2731 51.1538 49.0535 45.7692 50.8342 39.6154C51.4462 37.5 52.5912 34.2308 53.0104 32.3077C51.3046 30 47.6288 27.5822 45.8881 25.89C44.1473 24.1979 37.5788 19.6154 35.7982 18.2692ZM61.6904 35C61.6835 36.1253 61.5985 37.2488 61.4358 38.3629L68.9588 44.0988C69.2865 44.3627 69.5073 44.7308 69.5819 45.1381C69.6565 45.5454 69.5804 45.965 69.3669 46.3227L62.2496 58.2927C62.0335 58.6469 61.6954 58.9158 61.2954 59.0515C60.8954 59.1873 60.4588 59.1815 60.0627 59.035L52.5912 56.1104C52.1788 55.9511 51.7327 55.8935 51.2923 55.9427C50.8515 55.9923 50.4304 56.1473 50.0665 56.3935C48.9262 57.1569 47.7281 57.835 46.4823 58.4219C46.0904 58.6069 45.7515 58.8831 45.4958 59.2254C45.2396 59.5681 45.0746 59.9665 45.0146 60.3858L43.8946 68.1319C43.8212 68.5412 43.6035 68.9127 43.2792 69.1835C42.9554 69.4538 42.5446 69.6065 42.1173 69.6154H27.8827C27.4626 69.6085 27.0575 69.4623 26.7341 69.2015C26.4108 68.9408 26.1885 68.5808 26.1038 68.1808L24.9855 60.4454C24.9227 60.0215 24.7532 59.6192 24.4918 59.2746C24.2306 58.9296 23.8857 58.6531 23.4878 58.4688C22.2435 57.885 21.0493 57.205 19.9167 56.4358C19.5541 56.1904 19.1344 56.0365 18.6955 55.9885C18.2565 55.94 17.8121 55.9988 17.4023 56.1592L9.93219 59.0819C9.53631 59.2285 9.09996 59.2346 8.69996 59.0988C8.29996 58.9635 7.96196 58.695 7.74557 58.3412L0.62827 46.3712C0.41429 46.0138 0.337824 45.5938 0.412486 45.1865C0.487143 44.7792 0.708086 44.4111 1.03597 44.1473L7.39446 39.2946C7.74281 39.0258 8.01657 38.6765 8.19096 38.279C8.36531 37.8812 8.43473 37.4475 8.39292 37.0171C8.333 36.3426 8.29638 35.6696 8.29638 34.9951C8.29638 34.3206 8.33134 33.6574 8.39292 32.9975C8.43015 32.5697 8.35734 32.1396 8.181 31.746C8.00465 31.3523 7.73038 31.0075 7.38281 30.7426L1.02765 25.89C0.705086 25.6249 0.488801 25.2579 0.41669 24.8533C0.344582 24.4487 0.421251 24.0323 0.633263 23.6772L7.75058 11.7074C7.96669 11.3532 8.30457 11.0844 8.70457 10.9486C9.10461 10.8128 9.54111 10.8186 9.93719 10.965L17.4089 13.8895C17.821 14.0489 18.2673 14.1065 18.7078 14.0572C19.1484 14.0077 19.5695 13.8529 19.9333 13.6064C21.0737 12.8431 22.2719 12.165 23.5178 11.578C23.9095 11.393 24.2483 11.117 24.5043 10.7745C24.7602 10.4321 24.9255 10.0336 24.9855 9.61431L26.1055 1.8679C26.179 1.4588 26.3965 1.08722 26.7206 0.816673C27.0448 0.546126 27.4555 0.393407 27.8827 0.384615H42.1173C42.5373 0.39168 42.9427 0.537634 43.2658 0.798438C43.5892 1.05924 43.8115 1.41933 43.8962 1.81937L45.0146 9.55446C45.0773 9.97834 45.2469 10.3806 45.5081 10.7255C45.7696 11.0703 46.1142 11.347 46.5123 11.5311C47.7565 12.115 48.9508 12.7949 50.0835 13.5643C50.4458 13.8096 50.8658 13.9633 51.3046 14.0115C51.7435 14.0598 52.1881 14.0012 52.5977 13.841L60.0677 10.918C60.4638 10.7715 60.9 10.7655 61.3 10.901C61.7 11.0365 62.0381 11.3049 62.2546 11.6589L69.3715 23.6287C69.5858 23.9863 69.6623 24.4061 69.5877 24.8134C69.5127 25.2207 69.2919 25.589 68.9638 25.8528L62.6054 30.7054C62.2558 30.9733 61.9804 31.3221 61.8046 31.7198C61.6285 32.1176 61.5581 32.5518 61.5988 32.9829C61.6538 33.6526 61.6904 34.3255 61.6904 35Z" fill="#FF8822" stroke="black" stroke-linecap="round" stroke-linejoin="round"/>
<path d="M35.4835 34.1332L37.3214 24.964L29.0811 37.0358L34.7139 39.0292L32.8759 48.1981L41.1165 36.1265L35.4835 34.1332Z" fill="#99FFAA" stroke="black" stroke-linecap="round" stroke-linejoin="round"/>
</g>
<defs>
<clipPath id="clip0">
<rect width="70" height="70" fill="white"/>
</clipPath>
</defs>
</svg>

<svg width="70" height="70" fill="none" xmlns="http://www.w3.org/2000/svg"><g clip-path="url(#clip0)" stroke="#000" stroke-linecap="round" stroke-linejoin="round"><path d="M35.798 18.27c-1.978.96-5.935 4.038-8.329 5.768-1.91 1.052-8.487 6.347-10.067 7.708.007 1.908 2.425 8.83 3.162 10.946.738 2.116 2.78 8.462 2.924 8.846.145.385 6.77.385 9.343.385 1.978 0 12.665-.192 13.65-.385.792-.384 2.572-5.769 4.353-11.923.612-2.115 1.757-5.384 2.176-7.307-1.705-2.308-5.381-4.726-7.122-6.418-1.74-1.692-8.31-6.275-10.09-7.62zM61.69 35a24.301 24.301 0 01-.254 3.363l7.523 5.736c.328.264.548.632.623 1.04.075.406-.002.826-.215 1.184l-7.117 11.97a1.789 1.789 0 01-.955.758c-.4.136-.836.13-1.232-.016L52.59 56.11a2.757 2.757 0 00-2.525.284 27.54 27.54 0 01-3.584 2.028c-.392.185-.73.461-.986.803a2.537 2.537 0 00-.481 1.16l-1.12 7.747c-.074.41-.292.78-.616 1.051-.324.27-.734.423-1.162.432H27.883a1.88 1.88 0 01-1.149-.413 1.789 1.789 0 01-.63-1.021l-1.119-7.736a2.557 2.557 0 00-.493-1.17 2.66 2.66 0 00-1.004-.806 26.053 26.053 0 01-3.571-2.033 2.729 2.729 0 00-2.514-.277l-7.47 2.923a1.845 1.845 0 01-1.233.017 1.788 1.788 0 01-.954-.758L.628 46.371a1.705 1.705 0 01-.216-1.184c.075-.408.296-.776.624-1.04l6.358-4.852c.349-.27.623-.619.797-1.016.174-.398.244-.832.202-1.262a22.833 22.833 0 01-.097-2.022c0-.674.035-1.338.097-1.997a2.524 2.524 0 00-.212-1.252 2.599 2.599 0 00-.798-1.003L1.028 25.89a1.738 1.738 0 01-.611-1.037 1.707 1.707 0 01.216-1.176l7.118-11.97c.216-.354.554-.623.954-.758.4-.136.836-.13 1.232.016l7.472 2.925a2.754 2.754 0 002.524-.284 27.568 27.568 0 013.585-2.028c.392-.185.73-.461.986-.803.256-.343.421-.741.481-1.16l1.12-7.747c.074-.41.291-.78.616-1.051.324-.27.735-.424 1.162-.432h14.234c.42.007.826.153 1.149.413.323.261.546.621.63 1.021l1.119 7.735c.062.424.232.827.493 1.171a2.66 2.66 0 001.004.806 26.057 26.057 0 013.572 2.033 2.733 2.733 0 002.514.277l7.47-2.923a1.848 1.848 0 011.232-.017c.4.136.738.404.955.758l7.116 11.97c.215.357.291.777.217 1.184a1.739 1.739 0 01-.624 1.04l-6.359 4.852c-.35.268-.625.617-.8 1.015a2.53 2.53 0 00-.206 1.263c.055.67.091 1.343.091 2.017z" fill="#F82"/><path d="M35.483 34.133l1.838-9.169-8.24 12.072 5.633 1.993-1.838 9.17 8.24-12.072-5.633-1.994z" fill="#9FA"/></g><defs><clipPath id="clip0"><path fill="#fff" d="M0 0h70v70H0z"/></clipPath></defs></svg>
